X: 10961
T: COTILLION No. 14. tune 1
C:
%R: reel
B: Elias Howe "The Musician's Companion" Part 1 1842 p.96 #1
S: http://imslp.org/wiki/The_Musician's_Companion_(Howe,_Elias)
Z: 2015 John Chambers <jc:trillian.mit.edu>
N: The 3rd strain's beginning is a full measure, transcribed as 4 16th notes to fix the rhythm.
M: 2/4
L: 1/16
K: F
% - - - - - - - - - - - - - - - - - - - - - - - - -
cBAB |\
c2f2c2a2 | f4 gfef | g2ga bagf | efed cBAB |\
c2f2c2a2 | f4 gfef | g2ga bgfe | f4 H|]
cAFA |\
cAfc afcA | BcBA GAGF | EGce gage | gfef cAFA |\
cAfc afcA | BcBA GAGF | EGce gbge | "^D.C."f4 |]
d^cde |\
d2f2e2a2 | f4 edef | e2g2f2b2 | g4 bagf |\
efef gfed | ^c4 ABcd | efge agfe | "^D.C."d4 |]
% - - - - - - - - - - Dance description - - - - - - - - - -
%%begintext align
%% First 4 right and left,
%% balance and turn partners,
%% ladies chain,
%% promenade 4,
%% sides the same.
%%endtext
%- - - - - - - - - - - - - - - - - - - - - - - - -
%%sep 1 1 300
